;FLAVOR:UltiGCode
;TIME:5137      
;MATERIAL:7915      
;MATERIAL2:0         

;Layer count: 213
;LAYER:0
M107
G0 F9000 X101.016 Y98.478 Z0.300
G0 X100.716 Y98.833
;TYPE:SKIRT
G1 F1200 X101.016 Y98.478 E0.05577
G1 X103.994 Y96.031 E0.51830
G1 X107.421 Y94.200 E0.98456
G1 X111.135 Y93.073 E1.45030
G1 X115.000 Y92.693 E1.91634
G1 X118.414 Y93.029 E2.32800
G1 X118.878 Y93.079 E2.38400
G1 X122.154 Y94.071 E2.79475
G1 X122.598 Y94.212 E2.85065
G1 X125.620 Y95.824 E3.26166
G1 X126.027 Y96.051 E3.31758
G1 X128.667 Y98.216 E3.72729
G1 X129.022 Y98.516 E3.78306
G1 X131.469 Y101.494 E4.24559
G1 X133.300 Y104.921 E4.71184
G1 X134.427 Y108.635 E5.17759
G1 X134.809 Y112.500 E5.64365
G1 X134.471 Y115.915 E6.05545
G1 X134.421 Y116.378 E6.11134
G1 X133.429 Y119.654 E6.52208
G1 X133.288 Y120.098 E6.57799
G1 X131.676 Y123.120 E6.98899
G1 X131.449 Y123.527 E7.04492
G1 X129.284 Y126.167 E7.45462
G1 X128.984 Y126.522 E7.51040
G1 X126.006 Y128.969 E7.97292
G1 X122.579 Y130.800 E8.43918
G1 X118.865 Y131.927 E8.90493
G1 X115.000 Y132.307 E9.37096
G1 X111.586 Y131.971 E9.78262
G1 X111.122 Y131.921 E9.83862
G1 X107.860 Y130.933 E10.24763
G1 X107.416 Y130.796 E10.30338
G1 X104.380 Y129.176 E10.71633
G1 X103.973 Y128.949 E10.77225
G1 X101.333 Y126.784 E11.18195
G1 X100.978 Y126.484 E11.23773
G1 X98.531 Y123.506 E11.70025
G1 X96.700 Y120.079 E12.16651
G1 X95.573 Y116.365 E12.63226
G1 X95.191 Y112.500 E13.09832
G1 X95.529 Y109.085 E13.51012
G1 X95.579 Y108.622 E13.56600
G1 X96.571 Y105.346 E13.97675
G1 X96.712 Y104.902 E14.03265
G1 X98.324 Y101.880 E14.44366
G1 X98.551 Y101.473 E14.49958
G1 X100.716 Y98.833 E14.90929
G0 F9000 X101.023 Y99.089
G1 F1200 X101.298 Y98.764 E14.96038
G1 X104.218 Y96.365 E15.41387
G1 X107.575 Y94.571 E15.87062
G1 X111.214 Y93.467 E16.32696
G1 X115.000 Y93.095 E16.78346
G1 X118.373 Y93.427 E17.19018
G1 X118.798 Y93.472 E17.24147
G1 X122.035 Y94.453 E17.64735
G1 X122.442 Y94.582 E17.69859
G1 X125.428 Y96.175 E18.10471
G1 X125.801 Y96.383 E18.15596
G1 X128.411 Y98.523 E18.56098
G1 X128.736 Y98.798 E18.61207
G1 X131.135 Y101.718 E19.06556
G1 X132.929 Y105.075 E19.52231
G1 X134.033 Y108.713 E19.97853
G1 X134.407 Y112.500 E20.43518
G1 X134.073 Y115.874 E20.84204
G1 X134.028 Y116.298 E20.89321
G1 X133.047 Y119.535 E21.29909
G1 X132.918 Y119.942 E21.35033
G1 X131.325 Y122.928 E21.75645
G1 X131.117 Y123.301 E21.80770
G1 X128.977 Y125.911 E22.21272
G1 X128.702 Y126.236 E22.26381
G1 X125.782 Y128.635 E22.71730
G1 X122.425 Y130.429 E23.17405
G1 X118.786 Y131.533 E23.63039
G1 X115.000 Y131.905 E24.08690
G1 X111.627 Y131.573 E24.49361
G1 X111.202 Y131.528 E24.54490
G1 X107.977 Y130.550 E24.94930
G1 X107.570 Y130.425 E25.00039
G1 X104.572 Y128.825 E25.40818
G1 X104.199 Y128.617 E25.45943
G1 X101.589 Y126.477 E25.86445
G1 X101.264 Y126.202 E25.91554
G1 X98.865 Y123.282 E26.36903
G1 X97.071 Y119.925 E26.82578
G1 X95.967 Y116.287 E27.28200
G1 X95.593 Y112.500 E27.73865
G1 X95.927 Y109.126 E28.14551
G1 X95.972 Y108.702 E28.19668
G1 X96.953 Y105.465 E28.60256
G1 X97.082 Y105.058 E28.65380
G1 X98.675 Y102.072 E29.05992
G1 X98.883 Y101.699 E29.11117
G1 X101.023 Y99.089 E29.51619
G10
G0 F9000 X103.939 Y101.526
;TYPE:WALL-INNER
G11
G1 F1200 X103.976 Y101.483 E29.52300
G1 X106.342 Y99.538 E29.89054
G1 X109.036 Y98.099 E30.25705
G1 X111.958 Y97.212 E30.62348
G1 X115.000 Y96.913 E30.99028
G1 X117.982 Y97.207 E31.34986
G1 X118.041 Y97.213 E31.35698
G1 X120.905 Y98.081 E31.71609
G1 X123.605 Y99.509 E32.08262
G1 X123.656 Y99.537 E32.08960
G1 X125.974 Y101.439 E32.44941
G1 X126.017 Y101.476 E32.45622
G1 X127.962 Y103.842 E32.82376
G1 X129.401 Y106.536 E33.19027
G1 X130.288 Y109.458 E33.55671
G1 X130.588 Y112.500 E33.92352
G1 X130.293 Y115.482 E34.28311
G1 X130.287 Y115.541 E34.29022
G1 X129.419 Y118.405 E34.64934
G1 X127.991 Y121.105 E35.01587
G1 X127.963 Y121.156 E35.02285
G1 X126.061 Y123.474 E35.38266
G1 X126.024 Y123.517 E35.38947
G1 X123.658 Y125.462 E35.75701
G1 X120.964 Y126.901 E36.12352
G1 X118.042 Y127.788 E36.48996
G1 X115.000 Y128.087 E36.85676
G1 X112.018 Y127.793 E37.21633
G1 X111.959 Y127.787 E37.22345
G1 X109.087 Y126.916 E37.58359
G1 X109.036 Y126.900 E37.59000
G1 X106.395 Y125.491 E37.94920
G1 X106.344 Y125.463 E37.95619
G1 X104.026 Y123.561 E38.31600
G1 X103.983 Y123.524 E38.32281
G1 X102.038 Y121.158 E38.69035
G1 X100.599 Y118.464 E39.05686
G1 X99.712 Y115.542 E39.42330
G1 X99.412 Y112.500 E39.79011
G1 X99.707 Y109.518 E40.14969
G1 X99.713 Y109.459 E40.15681
G1 X100.581 Y106.595 E40.51593
G1 X102.009 Y103.895 E40.88245
G1 X102.037 Y103.844 E40.88943
G1 X103.939 Y101.526 E41.24925
G0 F9000 X112.649 Y110.792
G1 F1200 X112.244 Y111.584 E41.35599
G1 X112.113 Y112.379 E41.45268
G1 X112.093 Y112.494 E41.46669
G1 X112.218 Y113.292 E41.56362
G1 X112.238 Y113.402 E41.57703
G1 X112.573 Y114.061 E41.66574
G1 X112.753 Y114.399 E41.71170
G1 X117.255 Y114.399 E42.25194
G1 X117.714 Y113.497 E42.37338
G1 X117.764 Y113.403 E42.38616
G1 X117.887 Y112.621 E42.48115
G1 X117.907 Y112.506 E42.49516
G1 X117.782 Y111.708 E42.59209
G1 X117.762 Y111.597 E42.60562
G1 X117.402 Y110.892 E42.70062
G1 X117.353 Y110.794 E42.71376
G1 X116.708 Y110.149 E42.82322
G1 X115.898 Y109.735 E42.93238
G1 X115.000 Y109.594 E43.04146
G1 X114.102 Y109.735 E43.15054
G1 X113.292 Y110.149 E43.25970
G1 X112.649 Y110.792 E43.36883
G0 F9000 X112.976 Y111.030
;TYPE:WALL-OUTER
G1 F1200 X112.629 Y111.711 E43.46054
G1 X112.507 Y112.448 E43.55019
G1 X112.498 Y112.498 E43.55628
G1 X112.613 Y113.226 E43.64473
G1 X112.621 Y113.274 E43.65057
G1 X112.928 Y113.876 E43.73166
G1 X112.993 Y113.999 E43.74835
G1 X117.010 Y113.999 E44.23039
G1 X117.355 Y113.319 E44.32189
G1 X117.379 Y113.274 E44.32801
G1 X117.493 Y112.552 E44.41573
G1 X117.502 Y112.502 E44.42182
G1 X117.387 Y111.774 E44.51027
G1 X117.379 Y111.726 E44.51610
G1 X117.046 Y111.074 E44.60396
G1 X117.024 Y111.031 E44.60975
G1 X116.470 Y110.476 E44.70386
G1 X115.773 Y110.120 E44.79777
G1 X115.000 Y109.999 E44.89166
G1 X114.227 Y110.120 E44.98555
G1 X113.530 Y110.476 E45.07947
G1 X112.976 Y111.030 E45.17349
G0 F9000 X112.765 Y110.818
G0 X101.925 Y103.838
G0 X101.660 Y103.700
G1 F1200 X101.704 Y103.620 E45.18445
G1 X103.634 Y101.267 E45.54964
G1 X103.693 Y101.197 E45.56062
G1 X106.120 Y99.203 E45.93755
G1 X108.881 Y97.727 E46.31324
G1 X111.878 Y96.818 E46.68906
G1 X115.000 Y96.511 E47.06551
G1 X118.025 Y96.809 E47.43027
G1 X118.121 Y96.819 E47.44185
G1 X121.026 Y97.699 E47.80609
G1 X121.121 Y97.730 E47.81808
G1 X123.800 Y99.160 E48.18250
G1 X123.880 Y99.204 E48.19345
G1 X126.233 Y101.134 E48.55865
G1 X126.303 Y101.193 E48.56963
G1 X128.297 Y103.620 E48.94656
G1 X129.773 Y106.381 E49.32225
G1 X130.682 Y109.378 E49.69807
G1 X130.990 Y112.498 E50.07429
G1 X130.691 Y115.525 E50.43930
G1 X130.681 Y115.621 E50.45088
G1 X129.801 Y118.526 E50.81512
G1 X129.770 Y118.621 E50.82712
G1 X128.340 Y121.300 E51.19153
G1 X128.296 Y121.380 E51.20248
G1 X126.366 Y123.733 E51.56768
G1 X126.307 Y123.803 E51.57866
G1 X123.880 Y125.797 E51.95559
G1 X121.119 Y127.273 E52.33128
G1 X118.122 Y128.182 E52.70710
G1 X115.000 Y128.489 E53.08355
G1 X111.975 Y128.191 E53.44831
G1 X111.879 Y128.181 E53.45989
G1 X108.971 Y127.299 E53.82455
G1 X108.883 Y127.272 E53.83559
G1 X106.200 Y125.840 E54.20054
G1 X106.120 Y125.796 E54.21150
G1 X103.765 Y123.864 E54.57703
G1 X103.697 Y123.807 E54.58767
G1 X101.703 Y121.380 E54.96460
G1 X100.227 Y118.619 E55.34030
G1 X99.318 Y115.622 E55.71611
G1 X99.010 Y112.498 E56.09281
G1 X99.309 Y109.475 E56.45734
G1 X99.319 Y109.379 E56.46892
G1 X100.199 Y106.474 E56.83317
G1 X100.230 Y106.379 E56.84516
G1 X101.660 Y103.700 E57.20957
G0 F9000 X102.079 Y104.059
;TYPE:FILL
G1 F1200 X123.439 Y125.419 E60.83448
G0 F9000 X123.772 Y125.186
G1 F1200 X113.124 Y114.538 E62.64151
G0 F9000 X113.690 Y114.538
G1 F1200 X124.083 Y124.931 E64.40526
G0 F9000 X124.393 Y124.676
G1 F1200 X114.255 Y114.538 E66.12573
G0 F9000 X114.821 Y114.538
G1 F1200 X124.703 Y124.420 E67.80277
G0 F9000 X125.013 Y124.165
G1 F1200 X115.387 Y114.538 E69.43644
G0 F9000 X115.952 Y114.538
G1 F1200 X125.324 Y123.909 E71.02683
G0 F9000 X125.634 Y123.654
G1 F1200 X116.518 Y114.538 E72.57387
G0 F9000 X117.084 Y114.538
G1 F1200 X125.942 Y123.396 E74.07712
G0 F9000 X126.197 Y123.086
G1 F1200 X117.444 Y114.333 E75.56256
G0 F9000 X117.635 Y113.958
G1 F1200 X126.452 Y122.775 E77.05885
G0 F9000 X126.707 Y122.465
G1 F1200 X117.826 Y113.583 E78.56609
G0 F9000 X117.946 Y113.137
G1 F1200 X126.962 Y122.154 E80.09624
G0 F9000 X127.217 Y121.843
G1 F1200 X118.023 Y112.649 E81.65651
G0 F9000 X117.974 Y112.034
G1 F1200 X127.472 Y121.533 E83.26846
G0 F9000 X127.727 Y121.222
G1 F1200 X117.727 Y111.222 E84.96552
G0 F9000 X116.275 Y109.769
G1 F1200 X106.277 Y99.772 E86.66215
G0 F9000 X106.618 Y99.547
G1 F1200 X127.951 Y120.880 E90.28248
G0 F9000 X128.147 Y120.510
G1 F1200 X106.988 Y99.351 E93.87328
G0 F9000 X107.356 Y99.154
G1 F1200 X128.342 Y120.140 E97.43473
G0 F9000 X123.071 Y125.616
G1 F1200 X101.883 Y104.429 E101.03036
G0 F9000 X101.688 Y104.799
G1 F1200 X122.702 Y125.814 E104.59664
G0 F9000 X122.333 Y126.010
G1 F1200 X101.492 Y105.169 E108.13348
G0 F9000 X101.296 Y105.539
G1 F1200 X121.965 Y126.207 E111.64104
G0 F9000 X121.596 Y126.404
G1 F1200 X101.100 Y105.909 E115.11924
G0 F9000 X100.905 Y106.279
G1 F1200 X121.227 Y126.601 E118.56800
G0 F9000 X120.850 Y126.789
G1 F1200 X100.709 Y106.649 E121.98595
G0 F9000 X100.577 Y107.082
G1 F1200 X120.416 Y126.921 E125.35274
G0 F9000 X119.981 Y127.052
G1 F1200 X100.445 Y107.517 E128.66803
G0 F9000 X100.315 Y107.951
G1 F1200 X119.547 Y127.184 E131.93189
G0 F9000 X119.113 Y127.315
G1 F1200 X100.183 Y108.386 E135.14433
G0 F9000 X100.052 Y108.820
G1 F1200 X118.679 Y127.447 E138.30544
G0 F9000 X118.245 Y127.579
G1 F1200 X99.920 Y109.254 E141.41530
G0 F9000 X99.825 Y109.725
G1 F1200 X117.772 Y127.672 E144.46100
G0 F9000 X117.258 Y127.723
G1 F1200 X99.775 Y110.240 E147.42797
G0 F9000 X99.724 Y110.755
G1 F1200 X116.742 Y127.773 E150.31602
G0 F9000 X116.227 Y127.824
G1 F1200 X99.673 Y111.270 E153.12532
G0 F9000 X99.623 Y111.785
G1 F1200 X115.712 Y127.874 E155.85572
G0 F9000 X115.197 Y127.925
G1 F1200 X99.572 Y112.300 E158.50737
G0 F9000 X99.591 Y112.884
G1 F1200 X114.613 Y127.907 E161.05677
G0 F9000 X113.985 Y127.844
G1 F1200 X99.652 Y113.511 E163.48916
G0 F9000 X99.714 Y114.139
G1 F1200 X113.358 Y127.783 E165.80463
G0 F9000 X112.731 Y127.721
G1 F1200 X99.775 Y114.766 E168.00325
G0 F9000 X99.837 Y115.394
G1 F1200 X112.104 Y127.660 E170.08494
G0 F9000 X111.326 Y127.448
G1 F1200 X100.047 Y116.169 E171.99905
G0 F9000 X100.294 Y116.982
G1 F1200 X110.515 Y127.202 E173.73353
G0 F9000 X109.703 Y126.956
G1 F1200 X100.540 Y117.794 E175.28846
G0 F9000 X100.885 Y118.704
G1 F1200 X108.791 Y126.610 E176.63015
G0 F9000 X107.578 Y125.963
G1 F1200 X101.534 Y119.918 E177.65593
G0 F9000 X112.176 Y113.591
G1 F1200 X102.312 Y103.726 E179.32999
G0 F9000 X102.567 Y103.416
G1 F1200 X112.008 Y112.857 E180.93219
G0 F9000 X111.989 Y112.272
G1 F1200 X102.822 Y103.105 E182.48788
G0 F9000 X103.077 Y102.794
G1 F1200 X112.068 Y111.785 E184.01370
G0 F9000 X112.203 Y111.355
G1 F1200 X103.332 Y102.483 E185.51924
G0 F9000 X103.587 Y102.173
G1 F1200 X112.394 Y110.980 E187.01384
G0 F9000 X112.610 Y110.630
G1 F1200 X103.842 Y101.862 E188.50182
G0 F9000 X104.104 Y101.558
G1 F1200 X112.893 Y110.347 E189.99336
G0 F9000 X113.175 Y110.064
G1 F1200 X104.414 Y101.303 E191.48015
G0 F9000 X104.725 Y101.048
G1 F1200 X113.540 Y109.863 E192.97611
G0 F9000 X113.914 Y109.672
G1 F1200 X105.035 Y100.793 E194.48293
G0 F9000 X105.346 Y100.537
G1 F1200 X114.360 Y109.552 E196.01274
G0 F9000 X114.848 Y109.474
G1 F1200 X105.656 Y100.282 E197.57267
G0 F9000 X105.967 Y100.027
G1 F1200 X115.464 Y109.524 E199.18437
G0 F9000 X116.741 Y97.225
G1 F1200 X130.275 Y110.759 E201.48116
G0 F9000 X130.336 Y111.386
G1 F1200 X116.114 Y97.164 E203.89471
G0 F9000 X115.486 Y97.102
G1 F1200 X130.398 Y112.014 E206.42536
G0 F9000 X130.435 Y112.615
G1 F1200 X114.884 Y97.065 E209.06437
G0 F9000 X114.369 Y97.116
G1 F1200 X130.384 Y113.130 E211.78212
G0 F9000 X130.333 Y113.645
G1 F1200 X113.854 Y97.166 E214.57870
G0 F9000 X113.339 Y97.217
G1 F1200 X130.282 Y114.160 E217.45402
G0 F9000 X130.231 Y114.675
G1 F1200 X112.823 Y97.267 E220.40826
G0 F9000 X112.308 Y97.317
G1 F1200 X130.180 Y115.189 E223.44124
G0 F9000 X130.100 Y115.675
G1 F1200 X111.823 Y97.398 E226.54295
G0 F9000 X111.389 Y97.529
G1 F1200 X129.969 Y116.109 E229.69608
G0 F9000 X129.837 Y116.543
G1 F1200 X110.955 Y97.662 E232.90038
G0 F9000 X110.521 Y97.793
G1 F1200 X129.706 Y116.978 E236.15618
G0 F9000 X129.574 Y117.412
G1 F1200 X110.087 Y97.925 E239.46323
G0 F9000 X109.653 Y98.057
G1 F1200 X129.442 Y117.846 E242.82154
G0 F9000 X129.311 Y118.280
G1 F1200 X109.219 Y98.188 E246.23126
G0 F9000 X108.831 Y98.366
G1 F1200 X129.125 Y118.660 E249.67527
G0 F9000 X128.930 Y119.030
G1 F1200 X108.462 Y98.562 E253.14880
G0 F9000 X108.093 Y98.760
G1 F1200 X128.734 Y119.400 E256.65161
G0 F9000 X128.538 Y119.770
G1 F1200 X107.724 Y98.956 E260.18386
G0 F9000 X117.369 Y97.287
G1 F1200 X130.213 Y110.131 E262.36356
G0 F9000 X130.151 Y109.503
G1 F1200 X117.997 Y97.349 E264.42617
G0 F9000 X118.803 Y97.589
G1 F1200 X129.911 Y108.697 E266.31126
G0 F9000 X129.664 Y107.886
G1 F1200 X119.614 Y97.835 E268.01688
G0 F9000 X120.425 Y98.081
G1 F1200 X129.418 Y107.074 E269.54305
G0 F9000 X129.010 Y106.099
G1 F1200 X121.424 Y98.514 E270.83035
G0 F9000 X122.625 Y99.149
G1 F1200 X128.361 Y104.885 E271.80378
G0 F9000 X127.308 Y103.266
G1 F1200 X124.236 Y100.194 E272.32511
G0 F9000 X112.651 Y110.794
G0 X102.271 Y121.222
G1 F1200 X106.262 Y125.213 E273.00241
;LAYER:1
M106 S127
G0 F9000 X106.388 Y125.573 Z0.400
;TYPE:WALL-INNER
G1 F1620 X106.298 Y125.523 E273.00653
G1 X103.999 Y123.638 E273.12545
G1 X103.930 Y123.580 E273.12905
G1 X101.975 Y121.201 E273.25222
G1 X100.528 Y118.494 E273.37500
G1 X99.637 Y115.557 E273.49777
G1 X99.336 Y112.497 E273.62076
G1 X99.628 Y109.545 E273.73942
G1 X99.638 Y109.444 E273.74347
G1 X100.499 Y106.602 E273.86226
G1 X100.530 Y106.505 E273.86633
G1 X101.928 Y103.888 E273.98501
G1 X101.977 Y103.798 E273.98911
G1 X103.857 Y101.505 E274.10772
G1 X103.920 Y101.430 E274.11163
G1 X106.299 Y99.475 E274.23480
G1 X109.006 Y98.028 E274.35758
G1 X111.943 Y97.137 E274.48035
G1 X115.000 Y96.837 E274.60322
G1 X117.955 Y97.128 E274.72199
G1 X118.056 Y97.138 E274.72605
G1 X120.898 Y97.999 E274.84483
G1 X120.995 Y98.030 E274.84890
G1 X123.612 Y99.428 E274.96758
G1 X123.702 Y99.477 E274.97168
G1 X125.995 Y101.357 E275.09029
G1 X126.070 Y101.420 E275.09421
G1 X128.025 Y103.799 E275.21738
G1 X129.472 Y106.506 E275.34016
G1 X130.363 Y109.443 E275.46292
G1 X130.664 Y112.497 E275.58568
G1 X130.372 Y115.455 E275.70457
G1 X130.362 Y115.556 E275.70863
G1 X129.501 Y118.398 E275.82741
G1 X129.470 Y118.495 E275.83149
G1 X128.072 Y121.112 E275.95017
G1 X128.023 Y121.202 E275.95426
G1 X126.143 Y123.495 E276.07287
G1 X126.080 Y123.570 E276.07679
G1 X123.701 Y125.525 E276.19996
G1 X120.993 Y126.971 E276.32275
G1 X118.056 Y127.862 E276.44552
G1 X115.000 Y128.163 E276.56835
G1 X112.042 Y127.872 E276.68724
G1 X111.950 Y127.862 E276.69095
G1 X109.100 Y127.000 E276.81005
G1 X109.009 Y126.972 E276.81385
G1 X106.388 Y125.573 E276.93269
G0 F9000 X112.742 Y114.399
G1 F1620 X117.255 Y114.399 E277.11321
G1 X117.713 Y113.500 E277.15357
G1 X117.765 Y113.395 E277.15826
G1 X117.887 Y112.623 E277.18952
G1 X117.907 Y112.503 E277.19439
G1 X117.783 Y111.718 E277.22618
G1 X117.764 Y111.600 E277.23096
G1 X117.405 Y110.898 E277.26250
G1 X117.353 Y110.794 E277.26715
G1 X116.708 Y110.149 E277.30364
G1 X115.898 Y109.735 E277.34002
G1 X115.000 Y109.594 E277.37638
G1 X114.102 Y109.735 E277.41274
G1 X113.292 Y110.149 E277.44913
G1 X112.649 Y110.792 E277.48550
G1 X112.288 Y111.497 E277.51718
G1 X112.235 Y111.605 E277.52200
G1 X112.113 Y112.377 E277.55326
G1 X112.093 Y112.497 E277.55813
G1 X112.217 Y113.282 E277.58992
G1 X112.236 Y113.400 E277.59470
G1 X112.566 Y114.047 E277.62375
G1 X112.742 Y114.399 E277.63949
G0 F9000 X112.924 Y113.868
;TYPE:WALL-OUTER
G1 F1620 X112.989 Y113.999 E277.64534
G1 X117.010 Y113.999 E277.80618
