;FLAVOR:UltiGCode
;TIME:3181      
;MATERIAL:4879      
;MATERIAL2:0         

;Layer count: 188
;LAYER:0
M107
G0 F9000 X95.756 Y93.256 Z0.300
;TYPE:SKIRT
G1 F1200 X96.909 Y92.310 E0.17897
G1 X99.881 Y89.871 E0.64033
G1 X101.195 Y89.169 E0.81910
G1 X104.586 Y87.356 E1.28053
G1 X106.013 Y86.924 E1.45945
G1 X109.691 Y85.808 E1.92068
G1 X111.175 Y85.662 E2.09962
G1 X115.000 Y85.286 E2.56083
G1 X116.483 Y85.431 E2.73964
G1 X120.309 Y85.808 E3.20098
G1 X121.735 Y86.241 E3.37982
G1 X125.414 Y87.356 E3.84113
G1 X126.729 Y88.059 E4.02006
G1 X130.120 Y89.872 E4.48149
G1 X131.272 Y90.817 E4.66029
G1 X134.244 Y93.256 E5.12165
G1 X136.682 Y96.227 E5.58284
G1 X137.629 Y97.381 E5.76198
G1 X139.440 Y100.769 E6.22298
G1 X140.144 Y102.086 E6.40218
G1 X141.257 Y105.762 E6.86308
G1 X141.258 Y105.762 E6.86320
G1 X141.692 Y107.190 E7.04230
G1 X142.069 Y111.015 E7.50352
G1 X142.068 Y111.015 E7.50364
G1 X142.216 Y112.499 E7.68260
G1 X141.838 Y116.326 E8.14408
G1 X141.691 Y117.810 E8.32303
G1 X140.577 Y121.487 E8.78408
G1 X140.143 Y122.915 E8.96317
G1 X138.332 Y126.304 E9.42428
G1 X137.629 Y127.619 E9.60321
G1 X135.188 Y130.593 E10.06491
G1 X134.243 Y131.744 E10.24362
G1 X133.096 Y132.686 E10.42173
G1 X130.120 Y135.129 E10.88376
G1 X128.808 Y135.829 E11.06221
G1 X125.413 Y137.644 E11.52418
G1 X123.991 Y138.075 E11.70248
G1 X120.310 Y139.192 E12.16409
G1 X118.831 Y139.338 E12.34243
G1 X115.000 Y139.716 E12.80439
G1 X113.521 Y139.570 E12.98273
G1 X109.691 Y139.192 E13.44456
G1 X108.270 Y138.761 E13.62275
G1 X104.586 Y137.644 E14.08471
G1 X103.275 Y136.943 E14.26311
G1 X99.880 Y135.129 E14.72501
G1 X98.731 Y134.185 E14.90346
G1 X95.756 Y131.743 E15.36533
G1 X93.317 Y128.772 E15.82660
G1 X92.371 Y127.620 E16.00547
G1 X90.560 Y124.231 E16.46658
G1 X89.856 Y122.914 E16.64578
G1 X88.743 Y119.238 E17.10668
G1 X88.742 Y119.238 E17.10680
G1 X88.308 Y117.810 E17.28589
G1 X87.931 Y113.985 E17.74712
G1 X87.932 Y113.985 E17.74724
G1 X87.784 Y112.501 E17.92620
G1 X88.162 Y108.674 E18.38768
G1 X88.309 Y107.190 E18.56663
G1 X89.423 Y103.513 E19.02767
G1 X89.857 Y102.085 E19.20677
G1 X91.668 Y98.696 E19.66788
G1 X92.371 Y97.381 E19.84681
G1 X94.809 Y94.410 E20.30800
G1 X95.756 Y93.256 E20.48714
G10
G0 F9000 X98.457 Y95.957
;TYPE:WALL-INNER
G11
G1 F1200 X99.320 Y95.248 E20.62117
G1 X102.004 Y93.045 E21.03785
G1 X102.987 Y92.520 E21.17158
G1 X106.047 Y90.884 E21.58796
G1 X107.115 Y90.560 E21.72189
G1 X110.435 Y89.553 E22.13821
G1 X111.547 Y89.444 E22.27229
G1 X115.000 Y89.104 E22.68866
G1 X116.111 Y89.213 E22.82262
G1 X119.565 Y89.553 E23.23910
G1 X120.633 Y89.877 E23.37303
G1 X123.953 Y90.884 E23.78935
G1 X124.938 Y91.410 E23.92335
G1 X127.996 Y93.045 E24.33947
G1 X128.861 Y93.755 E24.47376
G1 X131.543 Y95.957 E24.89017
G1 X133.744 Y98.638 E25.30642
G1 X134.455 Y99.504 E25.44088
G1 X136.089 Y102.561 E25.85684
G1 X136.616 Y103.547 E25.99100
G1 X137.622 Y106.866 E26.40717
G1 X137.947 Y107.935 E26.54125
G1 X138.287 Y111.388 E26.95761
G1 X138.397 Y112.497 E27.09134
G1 X138.057 Y115.952 E27.50795
G1 X137.947 Y117.065 E27.64216
G1 X136.941 Y120.384 E28.05833
G1 X136.616 Y121.453 E28.19241
G1 X134.981 Y124.512 E28.60863
G1 X134.455 Y125.496 E28.74252
G1 X132.251 Y128.182 E29.15946
G1 X131.543 Y129.043 E29.29323
G1 X130.684 Y129.749 E29.42666
G1 X127.996 Y131.955 E29.84394
G1 X127.017 Y132.478 E29.97713
G1 X123.953 Y134.116 E30.39405
G1 X122.890 Y134.438 E30.52734
G1 X119.565 Y135.447 E30.94430
G1 X118.458 Y135.556 E31.07779
G1 X115.000 Y135.897 E31.49476
G1 X113.894 Y135.788 E31.62812
G1 X110.435 Y135.447 E32.04521
G1 X109.372 Y135.125 E32.17850
G1 X106.047 Y134.116 E32.59546
G1 X105.066 Y133.592 E32.72893
G1 X102.004 Y131.955 E33.14558
G1 X101.143 Y131.248 E33.27927
G1 X98.457 Y129.043 E33.69629
G1 X96.255 Y126.361 E34.11270
G1 X95.545 Y125.496 E34.24699
G1 X93.911 Y122.439 E34.66295
G1 X93.384 Y121.453 E34.79711
G1 X92.378 Y118.134 E35.21328
G1 X92.053 Y117.065 E35.34736
G1 X91.713 Y113.612 E35.76372
G1 X91.603 Y112.497 E35.89817
G1 X91.943 Y109.048 E36.31406
G1 X92.053 Y107.935 E36.44827
G1 X93.059 Y104.616 E36.86444
G1 X93.384 Y103.547 E36.99852
G1 X95.019 Y100.488 E37.41474
G1 X95.545 Y99.504 E37.54864
G1 X97.747 Y96.821 E37.96515
G1 X98.457 Y95.957 E38.09934
G0 F9000 X111.393 Y108.893
G1 F1200 X110.843 Y109.562 E38.20327
G1 X110.758 Y109.665 E38.21930
G1 X110.350 Y110.429 E38.32323
G1 X110.286 Y110.547 E38.33934
G1 X110.036 Y111.374 E38.44301
G1 X109.996 Y111.504 E38.45934
G1 X109.911 Y112.362 E38.56280
G1 X109.897 Y112.497 E38.57909
G1 X109.982 Y113.365 E38.68374
G1 X109.996 Y113.497 E38.69967
G1 X110.247 Y114.327 E38.80373
G1 X110.287 Y114.454 E38.81971
G1 X110.695 Y115.219 E38.92375
G1 X110.758 Y115.336 E38.93969
G1 X111.309 Y116.005 E39.04370
G1 X111.393 Y116.107 E39.05955
G1 X112.165 Y116.742 E39.17950
G1 X113.047 Y117.214 E39.29955
G1 X114.005 Y117.504 E39.41966
G1 X115.000 Y117.603 E39.53965
G1 X115.995 Y117.504 E39.65964
G1 X116.953 Y117.214 E39.77975
G1 X117.835 Y116.742 E39.89979
G1 X118.607 Y116.107 E40.01974
G1 X119.157 Y115.438 E40.12367
G1 X119.242 Y115.335 E40.13970
G1 X119.650 Y114.571 E40.24363
G1 X119.714 Y114.453 E40.25974
G1 X119.964 Y113.626 E40.36341
G1 X120.004 Y113.496 E40.37974
G1 X120.089 Y112.638 E40.48320
G1 X120.103 Y112.503 E40.49949
G1 X120.018 Y111.635 E40.60415
G1 X120.004 Y111.503 E40.62007
G1 X119.753 Y110.673 E40.72413
G1 X119.713 Y110.546 E40.74011
G1 X119.305 Y109.781 E40.84415
G1 X119.242 Y109.664 E40.86009
G1 X118.691 Y108.995 E40.96410
G1 X118.607 Y108.893 E40.97995
G1 X117.835 Y108.258 E41.09991
G1 X116.953 Y107.786 E41.21995
G1 X115.994 Y107.496 E41.34017
G1 X115.000 Y107.398 E41.46003
G1 X114.006 Y107.496 E41.57989
G1 X113.047 Y107.786 E41.70012
G1 X112.165 Y108.258 E41.82016
G1 X111.393 Y108.893 E41.94011
G0 F9000 X111.677 Y109.177
;TYPE:WALL-OUTER
G1 F1200 X111.152 Y109.816 E42.03935
G1 X111.092 Y109.888 E42.05060
G1 X110.702 Y110.619 E42.15002
G1 X110.657 Y110.701 E42.16125
G1 X110.418 Y111.493 E42.26052
G1 X110.390 Y111.583 E42.27183
G1 X110.309 Y112.405 E42.37095
G1 X110.299 Y112.499 E42.38229
G1 X110.380 Y113.324 E42.48177
G1 X110.390 Y113.417 E42.49299
G1 X110.630 Y114.210 E42.59242
G1 X110.658 Y114.299 E42.60361
G1 X111.048 Y115.029 E42.70293
G1 X111.092 Y115.112 E42.71420
G1 X111.618 Y115.751 E42.81352
G1 X111.677 Y115.823 E42.82469
G1 X112.388 Y116.408 E42.93518
G1 X113.201 Y116.843 E43.04583
G1 X114.084 Y117.110 E43.15652
G1 X115.000 Y117.201 E43.26699
G1 X115.916 Y117.110 E43.37745
G1 X116.799 Y116.843 E43.48815
G1 X117.612 Y116.408 E43.59879
G1 X118.323 Y115.823 E43.70928
G1 X118.848 Y115.184 E43.80852
G1 X118.908 Y115.112 E43.81977
G1 X119.298 Y114.381 E43.91919
G1 X119.343 Y114.299 E43.93042
G1 X119.582 Y113.507 E44.02969
G1 X119.610 Y113.417 E44.04100
G1 X119.691 Y112.595 E44.14012
G1 X119.701 Y112.501 E44.15146
G1 X119.620 Y111.676 E44.25094
G1 X119.610 Y111.583 E44.26216
G1 X119.370 Y110.790 E44.36158
G1 X119.342 Y110.701 E44.37278
G1 X118.952 Y109.971 E44.47210
G1 X118.908 Y109.888 E44.48337
G1 X118.382 Y109.249 E44.58269
G1 X118.323 Y109.177 E44.59386
G1 X117.612 Y108.592 E44.70435
G1 X116.799 Y108.157 E44.81499
G1 X115.916 Y107.890 E44.92569
G1 X115.000 Y107.800 E45.03614
G1 X114.084 Y107.890 E45.14659
G1 X113.201 Y108.157 E45.25729
G1 X112.388 Y108.592 E45.36794
G1 X111.677 Y109.177 E45.47842
G0 F9000 X111.486 Y108.946
G0 X99.263 Y95.164
G0 X99.066 Y94.939
G1 F1200 X101.782 Y92.710 E45.90005
G1 X102.798 Y92.167 E46.03829
G1 X105.892 Y90.512 E46.45935
G1 X106.999 Y90.177 E46.59814
G1 X110.355 Y89.159 E47.01898
G1 X111.508 Y89.046 E47.15800
G1 X115.000 Y88.702 E47.57907
G1 X116.150 Y88.815 E47.71773
G1 X119.645 Y89.159 E48.13916
G1 X120.749 Y89.494 E48.27761
G1 X124.108 Y90.512 E48.69879
G1 X125.127 Y91.057 E48.83746
G1 X128.218 Y92.710 E49.25809
G1 X129.115 Y93.446 E49.39733
G1 X131.828 Y95.672 E49.81845
G1 X134.053 Y98.384 E50.23940
G1 X134.790 Y99.282 E50.37880
G1 X136.442 Y102.372 E50.79927
G1 X136.988 Y103.392 E50.93810
G1 X138.005 Y106.750 E51.35914
G1 X138.341 Y107.855 E51.49773
G1 X138.685 Y111.349 E51.91904
G1 X138.799 Y112.499 E52.05772
G1 X138.455 Y115.991 E52.47878
G1 X138.341 Y117.145 E52.61794
G1 X137.324 Y120.500 E53.03863
G1 X136.988 Y121.608 E53.17757
G1 X135.334 Y124.701 E53.59847
G1 X134.790 Y125.718 E53.73687
G1 X132.560 Y128.436 E54.15876
G1 X131.828 Y129.328 E54.29722
G1 X130.938 Y130.058 E54.43535
G1 X128.218 Y132.290 E54.85758
G1 X127.206 Y132.831 E54.99529
G1 X124.108 Y134.488 E55.41688
G1 X123.006 Y134.821 E55.55503
G1 X119.645 Y135.841 E55.97651
G1 X118.497 Y135.954 E56.11494
G1 X115.000 Y136.299 E56.53661
G1 X113.855 Y136.186 E56.67468
G1 X110.355 Y135.841 E57.09672
G1 X109.256 Y135.508 E57.23452
G1 X105.892 Y134.488 E57.65635
G1 X104.877 Y133.945 E57.79448
G1 X101.782 Y132.290 E58.21565
G1 X100.889 Y131.557 E58.35428
G1 X98.172 Y129.328 E58.77600
G1 X95.946 Y126.615 E59.19712
G1 X95.210 Y125.718 E59.33636
G1 X93.558 Y122.628 E59.75682
G1 X93.012 Y121.608 E59.89566
G1 X91.995 Y118.250 E60.31669
G1 X91.659 Y117.145 E60.45529
G1 X91.315 Y113.651 E60.87659
G1 X91.201 Y112.499 E61.01551
G1 X91.545 Y109.009 E61.43634
G1 X91.659 Y107.855 E61.57549
G1 X92.676 Y104.500 E61.99618
G1 X93.012 Y103.392 E62.13512
G1 X94.666 Y100.299 E62.55602
G1 X95.210 Y99.282 E62.69442
G1 X97.438 Y96.567 E63.11588
G1 X98.172 Y95.672 E63.25478
G1 X99.066 Y94.939 E63.39351
G0 F9000 X99.513 Y95.271
;TYPE:FILL
G1 F1200 X112.280 Y108.037 E65.56006
G0 F9000 X111.938 Y108.261
G1 F1200 X99.202 Y95.525 E67.72143
G0 F9000 X98.891 Y95.780
G1 F1200 X111.628 Y108.516 E69.88288
G0 F9000 X111.317 Y108.772
G1 F1200 X98.581 Y96.035 E72.04434
G0 F9000 X98.321 Y96.341
G1 F1200 X111.058 Y109.078 E74.20588
G0 F9000 X110.803 Y109.389
G1 F1200 X98.066 Y96.652 E76.36742
G0 F9000 X97.811 Y96.962
G1 F1200 X110.569 Y109.721 E78.53261
G0 F9000 X110.372 Y110.089
G1 F1200 X97.556 Y97.273 E80.70756
G0 F9000 X97.301 Y97.584
G1 F1200 X110.175 Y110.457 E82.89226
G0 F9000 X110.037 Y110.885
G1 F1200 X97.046 Y97.894 E85.09691
G0 F9000 X96.791 Y98.205
G1 F1200 X109.906 Y111.320 E87.32260
G0 F9000 X109.825 Y111.805
G1 F1200 X96.536 Y98.516 E89.57781
G0 F9000 X96.281 Y98.826
G1 F1200 X109.774 Y112.320 E91.86774
G0 F9000 X109.797 Y112.908
G1 F1200 X96.026 Y99.137 E94.20475
G0 F9000 X95.771 Y99.448
G1 F1200 X109.862 Y113.539 E96.59608
G0 F9000 X110.107 Y114.350
G1 F1200 X95.548 Y99.791 E99.06682
G0 F9000 X99.824 Y95.016
G1 F1200 X112.648 Y107.840 E101.24312
G0 F9000 X113.021 Y107.647
G1 F1200 X100.134 Y94.760 E103.43012
G0 F9000 X100.445 Y94.506
G1 F1200 X113.455 Y107.515 E105.63791
G0 F9000 X113.889 Y107.384
G1 F1200 X100.756 Y94.250 E107.86674
G0 F9000 X101.067 Y93.996
G1 F1200 X114.388 Y107.317 E110.12738
G0 F9000 X114.904 Y107.267
G1 F1200 X101.377 Y93.741 E112.42291
G0 F9000 X101.688 Y93.485
G1 F1200 X115.510 Y107.308 E114.76866
G0 F9000 X116.171 Y107.403
G1 F1200 X101.999 Y93.231 E117.17373
G0 F9000 X102.351 Y93.017
G1 F1200 X116.981 Y107.647 E119.65652
G0 F9000 X118.627 Y108.727
G1 F1200 X102.719 Y92.820 E122.35612
G0 F9000 X103.089 Y92.623
G1 F1200 X134.876 Y124.411 E127.75063
G0 F9000 X134.679 Y124.779
G1 F1200 X118.767 Y108.867 E130.45099
G0 F9000 X119.849 Y110.515
G1 F1200 X134.481 Y125.148 E132.93421
G0 F9000 X134.268 Y125.500
G1 F1200 X120.098 Y111.330 E135.33894
G0 F9000 X120.191 Y111.989
G1 F1200 X134.013 Y125.811 E137.68461
G0 F9000 X133.758 Y126.121
G1 F1200 X120.232 Y112.596 E139.97996
G0 F9000 X120.181 Y113.110
G1 F1200 X133.503 Y126.432 E142.24078
G0 F9000 X133.248 Y126.743
G1 F1200 X120.114 Y113.609 E144.46969
G0 F9000 X137.253 Y118.868
G1 F1200 X108.631 Y90.246 E149.32701
G0 F9000 X109.065 Y90.115
G1 F1200 X137.385 Y118.434 E154.13299
G0 F9000 X137.517 Y118.001
G1 F1200 X109.499 Y89.983 E158.88780
G0 F9000 X109.933 Y89.851
G1 F1200 X137.648 Y117.567 E163.59128
G0 F9000 X137.780 Y117.132
G1 F1200 X110.367 Y89.719 E168.24342
G0 F9000 X110.865 Y89.651
G1 F1200 X137.848 Y116.635 E172.82267
G0 F9000 X137.899 Y116.121
G1 F1200 X111.380 Y89.601 E177.32318
G0 F9000 X111.895 Y89.550
G1 F1200 X137.950 Y115.606 E181.74494
G0 F9000 X138.001 Y115.090
G1 F1200 X112.410 Y89.499 E186.08788
G0 F9000 X112.925 Y89.449
G1 F1200 X138.051 Y114.576 E190.35199
G0 F9000 X138.102 Y114.060
G1 F1200 X113.440 Y89.398 E194.53727
G0 F9000 X113.955 Y89.348
G1 F1200 X138.153 Y113.545 E198.64372
G0 F9000 X138.203 Y113.030
G1 F1200 X114.470 Y89.297 E202.67134
G0 F9000 X114.985 Y89.246
G1 F1200 X138.254 Y112.515 E206.62022
G0 F9000 X138.196 Y111.891
G1 F1200 X115.609 Y89.304 E210.45336
G0 F9000 X116.236 Y89.366
G1 F1200 X138.134 Y111.263 E214.16949
G0 F9000 X138.072 Y110.636
G1 F1200 X116.863 Y89.427 E217.76878
G0 F9000 X117.491 Y89.490
G1 F1200 X138.010 Y110.008 E221.25088
G0 F9000 X137.948 Y109.381
G1 F1200 X118.118 Y89.551 E224.61615
G0 F9000 X118.745 Y89.613
G1 F1200 X137.886 Y108.753 E227.86440
G0 F9000 X137.825 Y108.126
G1 F1200 X119.373 Y89.674 E230.99581
G0 F9000 X108.197 Y90.378
G1 F1200 X137.122 Y119.303 E235.90454
G0 F9000 X136.990 Y119.737
G1 F1200 X107.763 Y90.510 E240.86453
G0 F9000 X107.329 Y90.641
G1 F1200 X136.859 Y120.171 E245.87593
G0 F9000 X136.727 Y120.605
G1 F1200 X106.895 Y90.773 E250.93859
G0 F9000 X106.460 Y90.904
G1 F1200 X136.596 Y121.039 E256.05276
G0 F9000 X136.453 Y121.462
G1 F1200 X106.037 Y91.046 E261.21452
G0 F9000 X105.668 Y91.243
G1 F1200 X136.255 Y121.830 E266.40531
G0 F9000 X136.059 Y122.200
G1 F1200 X105.300 Y91.440 E271.62537
G0 F9000 X104.931 Y91.637
G1 F1200 X135.862 Y122.568 E276.87453
G0 F9000 X135.664 Y122.936
G1 F1200 X104.562 Y91.834 E282.15272
G0 F9000 X104.194 Y92.032
G1 F1200 X135.467 Y123.305 E287.45992
G0 F9000 X135.270 Y123.674
G1 F1200 X103.825 Y92.229 E292.79632
G0 F9000 X103.457 Y92.426
G1 F1200 X135.073 Y124.042 E298.16173
G0 F9000 X132.994 Y127.054
G1 F1200 X119.983 Y114.043 E300.36977
G0 F9000 X119.852 Y114.478
G1 F1200 X132.738 Y127.364 E302.55660
G0 F9000 X132.484 Y127.675
G1 F1200 X119.658 Y114.849 E304.73324
G0 F9000 X119.461 Y115.218
G1 F1200 X132.228 Y127.986 E306.89996
G0 F9000 X131.974 Y128.297
G1 F1200 X119.237 Y115.560 E309.06150
G0 F9000 X118.982 Y115.870
G1 F1200 X131.719 Y128.607 E311.22304
G0 F9000 X131.464 Y128.919
G1 F1200 X118.726 Y116.181 E313.38475
G0 F9000 X118.422 Y116.442
G1 F1200 X131.157 Y129.177 E315.54595
G0 F9000 X130.846 Y129.432
G1 F1200 X118.110 Y116.696 E317.70732
G0 F9000 X117.779 Y116.930
G1 F1200 X130.535 Y129.686 E319.87208
G0 F9000 X130.225 Y129.942
G1 F1200 X117.410 Y117.127 E322.04686
G0 F9000 X117.042 Y117.325
G1 F1200 X129.914 Y130.197 E324.23131
G0 F9000 X129.603 Y130.452
G1 F1200 X116.614 Y117.463 E326.43562
G0 F9000 X116.179 Y117.593
G1 F1200 X129.293 Y130.707 E328.66114
G0 F9000 X128.982 Y130.962
G1 F1200 X115.693 Y117.673 E330.91636
G0 F9000 X115.179 Y117.724
G1 F1200 X128.671 Y131.217 E333.20611
G0 F9000 X128.361 Y131.472
G1 F1200 X114.590 Y117.702 E335.54304
G0 F9000 X113.958 Y117.635
G1 F1200 X128.050 Y131.727 E337.93453
G0 F9000 X127.707 Y131.949
G1 F1200 X113.147 Y117.390 E340.40536
G0 F9000 X111.885 Y116.693
G1 F1200 X127.338 Y132.146 E343.02782
G0 F9000 X126.970 Y132.344
G1 F1200 X95.154 Y100.528 E348.42718
G0 F9000 X94.957 Y100.897
G1 F1200 X126.601 Y132.541 E353.79734
G0 F9000 X126.232 Y132.738
G1 F1200 X94.760 Y101.265 E359.13840
G0 F9000 X94.562 Y101.633
G1 F1200 X125.864 Y132.935 E364.45053
G0 F9000 X125.495 Y133.132
G1 F1200 X94.366 Y102.002 E369.73338
G0 F9000 X94.168 Y102.371
G1 F1200 X125.126 Y133.329 E374.98713
G0 F9000 X124.758 Y133.526
G1 F1200 X93.971 Y102.739 E380.21185
G0 F9000 X93.774 Y103.108
G1 F1200 X124.389 Y133.723 E385.40739
G0 F9000 X124.021 Y133.921
G1 F1200 X93.577 Y103.476 E390.57399
G0 F9000 X93.424 Y103.889
G1 F1200 X123.608 Y134.073 E395.69639
G0 F9000 X123.173 Y134.204
G1 F1200 X93.293 Y104.324 E400.76719
G0 F9000 X93.162 Y104.758
G1 F1200 X122.739 Y134.336 E405.78666
G0 F9000 X122.305 Y134.467
G1 F1200 X93.030 Y105.192 E410.75479
G0 F9000 X92.898 Y105.626
G1 F1200 X121.871 Y134.599 E415.67168
G0 F9000 X121.437 Y134.731
G1 F1200 X92.766 Y106.060 E420.53731
G0 F9000 X92.635 Y106.494
G1 F1200 X121.003 Y134.862 E425.35151
G0 F9000 X120.570 Y134.995
G1 F1200 X92.503 Y106.928 E430.11464
